src/16/actions/go-jump-declaration.svg

<svg xmlns="http://www.w3.org/2000/svg" viewBox="0 0 16 16">
  <defs id="defs3051">
    <style type="text/css" id="current-color-scheme">
      .ColorScheme-Text {
        color:#5d656b;
      }
      </style>
  </defs>
 <path style="fill:currentColor;fill-opacity:1;stroke:none" 
     d="M 2 2 L 2 14 L 3 14 L 3 7 L 9 7 L 9 3 L 3 3 L 3 2 L 2 2 z M 12 2 L 10 4 L 12 6 L 12 4.7148438 C 12.62475 5.6575938 13 6.779 13 8 C 13 11.324 10.324 13 7 13 L 7 14 C 10.87825 14 14 11.87825 14 8 C 14 6.09125 13.230297 4.3764375 11.998047 3.1171875 L 12 2 z "
     class="ColorScheme-Text"
     />
</svg>

<svg xmlns="http://www.w3.org/2000/svg" viewBox="0 0 16 16"><path d="M2 2v12h1V7h6V3H3V2H2zm10 0l-2 2 2 2V4.715c.625.943 1 2.064 1 3.285 0 3.324-2.676 5-6 5v1c3.878 0 7-2.122 7-6 0-1.909-.77-3.624-2.002-4.883L12 2z" fill="currentColor" color="#5d656b"/></svg>
